dist/img/icons/bell.svg

<svg width="20" height="20" viewBox="0 0 20 20" fill="none" xmlns="http://www.w3.org/2000/svg">
<g clip-path="url(#clip0)">
<path d="M7.23474 18.1963C7.70423 19.2577 8.76672 20.0005 10 20.0005C11.2333 20.0005 12.2957 19.2577 12.7653 18.1963H7.23474Z" fill="#FF600E"/>
<path d="M9.99976 1.91081C10.8136 1.91081 11.595 2.0544 12.3202 2.3173V2.22797C12.3202 0.99946 11.3208 0 10.0923 0H9.90765C8.67915 0 7.67969 0.99946 7.67969 2.22797V2.31616C8.40447 2.05405 9.18568 1.91081 9.99976 1.91081Z" fill="#FF600E"/>
<path d="M17.3233 17.0223H2.6766C2.3995 17.0223 2.14568 16.8354 2.08805 16.5644C2.031 16.296 2.15331 16.0311 2.40146 15.9165C2.46034 15.8783 2.90357 15.5684 3.34731 14.6307C4.16229 12.9087 4.33335 10.483 4.33335 8.75133C4.33335 5.62685 6.87532 3.08496 9.99976 3.08496C13.1168 3.08496 15.6541 5.6146 15.6661 8.72883C15.6664 8.73631 15.6666 8.74382 15.6666 8.75133C15.6666 10.483 15.8376 12.9087 16.6526 14.6307C17.0963 15.5684 17.5395 15.8783 17.5985 15.9165C17.8466 16.0311 17.969 16.296 17.9119 16.5644C17.8542 16.8354 17.6005 17.0223 17.3233 17.0223ZM17.605 15.9206H17.6054H17.605Z" fill="#FF600E"/>
</g>
<defs>
<clipPath id="clip0">
<rect width="20" height="20" fill="white"/>
</clipPath>
</defs>
</svg>

<svg width="20" height="20" fill="none" xmlns="http://www.w3.org/2000/svg"><g clip-path="url(#clip0)" fill="#FF600E"><path d="M7.235 18.196A3.026 3.026 0 0010 20a3.027 3.027 0 002.765-1.804h-5.53zM10 1.91a6.79 6.79 0 012.32.407v-.089C12.32.999 11.32 0 10.092 0h-.184A2.23 2.23 0 007.68 2.228v.088A6.809 6.809 0 0110 1.911zm7.323 15.112H2.677a.597.597 0 01-.589-.458.57.57 0 01.313-.648c.06-.038.503-.348.946-1.285.815-1.722.986-4.148.986-5.88A5.673 5.673 0 0110 3.085a5.673 5.673 0 015.667 5.666c0 1.732.17 4.158.986 5.88.443.937.887 1.247.946 1.285a.57.57 0 01.313.648.597.597 0 01-.589.458zm.282-1.101z"/></g><defs><clipPath id="clip0"><path fill="#fff" d="M0 0h20v20H0z"/></clipPath></defs></svg>
